assets/icons/instapaper.svg

<?xml version="1.0" ?><svg height="60px" version="1.1" viewBox="0 0 60 60" width="60px" xmlns="http://www.w3.org/2000/svg" xmlns:sketch="http://www.bohemiancoding.com/sketch/ns" xmlns:xlink="http://www.w3.org/1999/xlink"><title/><defs/><g fill="none" fill-rule="evenodd" id="flat" stroke="none" stroke-width="1"><g id="instapaper"><path d="M30,60 C46.5685433,60 60,46.5685433 60,30 C60,13.4314567 46.5685433,0 30,0 C13.4314567,0 0,13.4314567 0,30 C0,46.5685433 13.4314567,60 30,60 Z" fill="#7F8C8D" id="Instapaper"/><path d="M23.0769231,45 L23.0769231,43.383477 C23.5319633,43.3531196 27.6831524,43.2000732 27.6831524,40.4098276 L27.6831524,19.6589074 C27.6831524,16.794997 23.56567,16.6468804 23.0769231,16.616523 L23.0769231,15 L36.9230769,15 L36.9230769,16.616523 C36.4198739,16.6311424 32.3252986,16.7683763 32.3460999,19.4440382 C32.3669012,22.1197002 32.3252986,19.5860213 32.3252986,19.6589074 L32.3252986,40.4098276 C32.3252986,43.226694 36.3669167,43.3682983 36.9230769,43.383477 L36.9230769,45 L23.0769231,45 Z" fill="#FFFFFF" id="Instapaper"/></g></g></svg>

<svg height="60" width="60" xmlns="http://www.w3.org/2000/svg"><g fill="none" fill-rule="evenodd"><path d="M30 60c16.569 0 30-13.431 30-30C60 13.431 46.569 0 30 0 13.431 0 0 13.431 0 30c0 16.569 13.431 30 30 30z" fill="#7F8C8D"/><path d="M23.077 45v-1.617c.455-.03 4.606-.183 4.606-2.973V19.659c0-2.864-4.117-3.012-4.606-3.042V15h13.846v1.617c-.503.014-4.598.151-4.577 2.827.02 2.676-.02.142-.02.215v20.75c0 2.818 4.04 2.96 4.597 2.974V45H23.077z" fill="#FFF"/></g></svg>
